assets/icon/lanai.svg

<?xml version="1.0" encoding="UTF-8"?>
<svg width="72px" height="78px" viewBox="0 0 72 78" version="1.1" xmlns="http://www.w3.org/2000/svg" xmlns:xlink="http://www.w3.org/1999/xlink">
    <!-- Generator: Sketch 44 (41411) - http://www.bohemiancoding.com/sketch -->
    <title>Page 1 Copy</title>
    <desc>Created with Sketch.</desc>
    <defs></defs>
    <g id="Inspection" stroke="none" stroke-width="1" fill="none" fill-rule="evenodd">
        <g id="NewInspectionRoomSelection" transform="translate(-1007.000000, -729.000000)">
            <g id="Page-1-Copy" transform="translate(1007.000000, 729.000000)">
                <polygon id="Path-4" fill="#D5D5E6" points="25.4091797 2.94824219 22.6132812 23.0737305 26.0263672 26.621582 31.2822266 24.8911133 32.3857422 19.621582 36.6357422 22.0698242 41.206543 20.8164062 43.2114258 15.4638672"></polygon>
                <polygon id="Path-6" fill="#D5D5E6" points="3.29199219 59.9931641 3.30371094 65.3720703 54.8818359 65.2363281 70.2060547 44.65625 66.2294922 42.6728516 52.3925781 59.4892578"></polygon>
                <path d="M12.8453684,66.7778526 L3.83595789,66.7778526 C2.33499158,66.7778526 1.09380632,65.55588 1.09380632,64.0453074 L1.09380632,61.3031558 C1.09380632,59.7796926 2.30937474,58.5674084 3.80713895,58.5674084 L51.54396,58.5674084 L63.9878337,42.0535768 C64.8955074,40.8508989 66.6113432,40.6103305 67.8173053,41.5179714 L70.0046716,43.1696829 C71.2234421,44.0837608 71.45112,45.7931924 70.5434874,46.9991545 L56.4575084,65.6912387 C56.0149118,66.27816 55.0334747,66.7784766 54.2894368,66.7784766 L52.2945253,66.7784766 L60.9057253,75.3929608 C61.4349183,75.9189436 61.4381286,76.7912956 60.9057253,77.3269503 C60.3861549,77.8433185 59.4977842,77.8561434 58.9589274,77.3141205 L48.42318,66.7783699 L16.7133063,66.7783699 L6.18084316,77.3141205 C5.64202737,77.8529363 4.76641579,77.8593488 4.23404526,77.3269503 C3.71447495,76.80738 3.69843979,75.9254135 4.23084316,75.3929608 L12.8453684,66.7778526 Z M3.83267368,64.0421053 L54.2732211,64.0421053 L68.3559158,45.3533053 L66.1717516,43.7047958 L52.9068253,61.3065221 L3.83250947,61.3065221 L3.83267368,64.0421053 Z" id="Fill-1" fill="#AAAAAA"></path>
                <path d="M20.7956211,23.1627158 C20.7571301,23.3968472 20.782788,23.6438034 20.8790072,23.8811368 C21.7289608,25.9850842 20.7122267,28.3777137 18.608304,29.2275853 C16.5075587,30.0742547 14.1149293,29.0608131 13.2650577,26.9568821 C12.9828208,26.2577065 12.184224,25.9177579 11.4850156,26.1999701 C11.1354278,26.3442947 10.8756385,26.6137067 10.7377263,26.9344263 C10.5998141,27.2583562 10.5869893,27.6336019 10.7281036,27.9831568 C11.5780573,30.0839021 10.5613314,32.4765316 8.46060253,33.3264032 C6.59402147,34.0801048 4.49968042,33.3648941 3.457272,31.7260074 L23.0631878,6.43676526 L20.7956211,23.1627158 Z M23.5570674,23.1659261 C24.5063684,25.055004 26.7642632,25.9305745 28.7591747,25.1255324 C30.8631221,24.2755787 31.8766295,21.8830314 31.0298779,19.7822861 C30.8855533,19.429488 30.9015884,19.0574526 31.0362903,18.7335556 C31.1742025,18.412836 31.4339918,18.1402137 31.7835796,17.9990994 C32.4859655,17.7168625 33.2813438,18.0536173 33.5668238,18.7560114 C34.4167775,20.8567566 36.8093248,21.8734661 38.9100701,21.0235124 C40.9081838,20.2184949 41.9216912,18.0182956 41.2930112,15.9977672 L26.1454112,4.03831453 L23.5570674,23.1659261 Z M43.2754674,14.0768735 C43.4679057,14.2211981 43.6218531,14.4168385 43.718064,14.654172 C44.5647335,16.7581194 46.9573629,17.7716267 49.0613103,16.9248752 C51.1620556,16.0749215 52.1787651,13.6823741 51.3288114,11.5784267 C51.1876888,11.2288389 51.2005219,10.8535933 51.3384341,10.5328983 C51.4763463,10.2089684 51.7361356,9.93955642 52.0857234,9.79844211 C52.7848989,9.51620526 53.5834876,9.85296 53.8657655,10.5553541 C54.7157192,12.6560994 57.1082665,13.6728088 59.2122139,12.8228552 C61.0755928,12.0691535 62.0858981,10.0999162 61.6977865,8.19802989 L30.0265023,3.62452042 L43.2754674,14.0768735 Z M33.0796358,24.8564735 C32.3419693,26.0816482 31.2130547,27.0854672 29.7858189,27.6628314 C27.7107726,28.4998945 25.4656863,28.2497526 23.6856442,27.1753314 C23.1500387,29.1862535 21.7100274,30.9245861 19.6348989,31.7648514 C17.5598526,32.6019145 15.3147663,32.3517726 13.5347242,31.2773514 C12.9991187,33.2850714 11.5591074,35.0266061 9.48397895,35.8636693 C5.99130316,37.2780966 2.01428842,35.5974676 0.590336842,32.1112124 C0.494117684,31.8867038 0.458837053,31.6365455 0.490915579,31.3960017 C0.529406526,31.1330103 0.628827789,30.9052914 0.779564842,30.7128613 L24.0350596,0.658229684 C24.3365419,0.266948842 24.8240419,0.0713084211 25.3147522,0.141861474 L62.9197838,5.606952 C63.1603276,5.63902232 63.3912486,5.73524147 63.5836787,5.88277642 C63.7921522,6.04955684 63.9396789,6.25160968 64.0294857,6.47932042 C65.4246183,9.97840042 63.7312137,13.9490109 60.2353194,15.3598257 C58.1602731,16.2000909 55.9151867,15.9467469 54.1351446,14.8723257 C53.6027413,16.8832478 52.1627299,18.6215804 50.0876015,19.4618457 C48.0093531,20.2989088 45.7642667,20.0487669 43.9874267,18.9743457 C43.4518213,20.9820657 42.0118099,22.7236004 39.9366815,23.5606636 C38.5062436,24.1379703 36.9988731,24.1989006 35.6165488,23.8300756 L49.9751173,59.3660463 C50.2509417,60.0523971 49.9141787,60.8542042 49.2150032,61.1396842 C48.5350731,61.4122983 47.7172389,61.0851663 47.4349611,60.3923949 L33.0796358,24.8564735 Z" id="Fill-2" fill="#AAAAAA"></path>
            </g>
        </g>
    </g>
</svg>

<?xml version="1.0" encoding="utf-8"?>
<!-- Generator: Adobe Illustrator 16.0.4, SVG Export Plug-In . SVG Version: 6.00 Build 0)  -->
<!DOCTYPE svg PUBLIC "-//W3C//DTD SVG 1.1//EN" "http://www.w3.org/Graphics/SVG/1.1/DTD/svg11.dtd">
<svg version="1.1" id="Layer_1" xmlns="http://www.w3.org/2000/svg" xmlns:xlink="http://www.w3.org/1999/xlink" x="0px" y="0px"
	 width="72px" height="78px" viewBox="0 0 72 78" enable-background="new 0 0 72 78" xml:space="preserve">
<title>Page 1 Copy</title>
<desc>Created with Sketch.</desc>
<path id="Fill-1" fill="#2F2A69" d="M12.845,66.777H3.836c-1.501,0-2.742-1.222-2.742-2.732v-2.742c0-1.523,1.216-2.735,2.713-2.735
	h47.737l12.444-16.514c0.907-1.202,2.623-1.443,3.829-0.536l2.188,1.652c1.219,0.914,1.446,2.623,0.538,3.829L56.457,65.691
	c-0.441,0.587-1.424,1.087-2.168,1.087h-1.994l8.611,8.614c0.529,0.526,0.531,1.398,0,1.935c-0.52,0.517-1.408,0.528-1.947-0.013
	L48.424,66.778h-31.71L6.181,77.314c-0.539,0.539-1.414,0.545-1.947,0.013c-0.52-0.52-0.536-1.401-0.003-1.935L12.845,66.777z
	 M3.833,64.042h50.441l14.082-18.688l-2.184-1.648L52.906,61.307H3.833V64.042z"/>
<path id="Fill-2" fill="#2F2A69" d="M23.557,23.166c0.949,1.889,3.207,2.765,5.202,1.959c2.104-0.85,3.117-3.243,2.271-5.343
	c-0.144-0.353-0.128-0.725,0.006-1.049c0.138-0.32,0.398-0.593,0.748-0.734c0.702-0.282,1.498,0.055,1.783,0.757
	c0.85,2.101,3.243,3.118,5.343,2.268c1.998-0.805,3.012-3.005,2.383-5.026L26.146,4.038L23.557,23.166z M43.275,14.077
	c0.192,0.145,0.347,0.34,0.443,0.578c0.846,2.104,3.238,3.117,5.343,2.271c2.101-0.85,3.117-3.242,2.267-5.346
	c-0.141-0.35-0.127-0.725,0.01-1.046c0.139-0.324,0.398-0.593,0.748-0.734c0.699-0.282,1.498,0.055,1.779,0.757
	c0.851,2.101,3.243,3.118,5.348,2.268c1.863-0.753,2.873-2.723,2.484-4.625L30.026,3.625L43.275,14.077z M33.08,24.856
	c-0.738,1.225-1.867,2.229-3.294,2.807c-2.075,0.837-4.32,0.587-6.1-0.488c-0.536,2.011-1.976,3.75-4.051,4.589
	c-2.075,0.837-4.32,0.587-6.1-0.487c-0.536,2.008-1.976,3.749-4.051,4.586c-3.493,1.415-7.47-0.266-8.894-3.752
	c-0.096-0.225-0.131-0.475-0.1-0.715c0.039-0.263,0.138-0.491,0.289-0.683L24.035,0.658c0.301-0.391,0.789-0.587,1.28-0.516
	L62.92,5.607c0.24,0.032,0.471,0.128,0.664,0.276c0.208,0.167,0.355,0.369,0.445,0.597c1.396,3.499-0.298,7.47-3.794,8.88
	c-2.075,0.84-4.32,0.587-6.101-0.488c-0.532,2.011-1.973,3.75-4.047,4.59c-2.078,0.837-4.324,0.587-6.101-0.488
	c-0.536,2.008-1.976,3.75-4.051,4.586c-1.431,0.578-2.938,0.638-4.32,0.27l14.358,35.536c0.276,0.687-0.061,1.487-0.76,1.773
	c-0.68,0.272-1.498-0.055-1.779-0.747L33.08,24.856z"/>
<path id="Fill-2_1_" fill="#F5F5FC" d="M20.889,22.756c-0.038,0.234-0.013,0.481,0.083,0.719c0.85,2.104-0.167,4.497-2.271,5.346
	c-2.101,0.847-4.494-0.167-5.343-2.271c-0.282-0.699-1.081-1.039-1.78-0.757c-0.35,0.144-0.609,0.414-0.747,0.734
	c-0.138,0.324-0.151,0.699-0.01,1.049c0.85,2.101-0.167,4.493-2.268,5.343c-1.866,0.754-3.961,0.039-5.003-1.6L23.157,6.03
	L20.889,22.756z"/>
</svg>
